icons/confused_fill.svg

<svg width="48" height="48" viewBox="0 0 48 48" fill="none" xmlns="http://www.w3.org/2000/svg">
<path fill-rule="evenodd" clip-rule="evenodd" d="M24 40C32.8366 40 40 32.8366 40 24C40 15.1634 32.8366 8 24 8C15.1634 8 8 15.1634 8 24C8 32.8366 15.1634 40 24 40ZM24 42C33.9411 42 42 33.9411 42 24C42 14.0589 33.9411 6 24 6C14.0589 6 6 14.0589 6 24C6 33.9411 14.0589 42 24 42Z" fill="black"/>
<path fill-rule="evenodd" clip-rule="evenodd" d="M17.5 26C18.8807 26 20 24.2091 20 22C20 19.7909 18.8807 18 17.5 18C16.1193 18 15 19.7909 15 22C15 24.2091 16.1193 26 17.5 26ZM30.5 26C31.8807 26 33 24.2091 33 22C33 19.7909 31.8807 18 30.5 18C29.1193 18 28 19.7909 28 22C28 24.2091 29.1193 26 30.5 26Z" fill="black"/>
<path fill-rule="evenodd" clip-rule="evenodd" d="M21.3196 34.5138L21.2755 34.5495C20.8462 34.8971 20.2165 34.8308 19.869 34.4016C19.5214 33.9724 19.5877 33.3427 20.0169 32.9952C20.0613 32.9592 20.1057 32.9232 20.1502 32.8871C21.3336 31.9274 22.5614 30.9318 24.4245 30.428C26.3464 29.9083 28.8328 29.9336 32.5676 30.7508C33.1071 30.8688 33.4488 31.4019 33.3307 31.9414C33.2127 32.481 32.6796 32.8226 32.1401 32.7046C28.5482 31.9186 26.4248 31.9589 24.9466 32.3586C23.4968 32.7507 22.5604 33.509 21.3196 34.5138Z" fill="black"/>
</svg>

<svg
  xmlns="http://www.w3.org/2000/svg"
  width="24"
  height="24"
  viewBox="0 0 24 24"
  fill="none"
  stroke="currentColor"
  stroke-width="2"
  stroke-linecap="round"
  stroke-linejoin="round"
>
  <path
    fill-rule="evenodd"
    d="M24 40c8.837 0 16-7.163 16-16S32.837 8 24 8 8 15.163 8 24s7.163 16 16 16m0 2c9.941 0 18-8.059 18-18S33.941 6 24 6 6 14.059 6 24s8.059 18 18 18"
    clip-rule="evenodd"
  />
  <path
    fill-rule="evenodd"
    d="M17.5 26c1.38 0 2.5-1.79 2.5-4s-1.12-4-2.5-4-2.5 1.79-2.5 4 1.12 4 2.5 4m13 0c1.38 0 2.5-1.79 2.5-4s-1.12-4-2.5-4-2.5 1.79-2.5 4 1.12 4 2.5 4"
    clip-rule="evenodd"
  />
  <path
    fill-rule="evenodd"
    d="m21.32 34.514-.044.035a1 1 0 0 1-1.26-1.554l.134-.108c1.184-.96 2.411-1.955 4.275-2.459 1.921-.52 4.408-.494 8.143.323a1 1 0 1 1-.428 1.954c-3.592-.786-5.715-.746-7.193-.346-1.45.392-2.387 1.15-3.627 2.155"
    clip-rule="evenodd"
  />
</svg>
